X:116
T:Lord Gordon (reel)
T:"Florid" version
B:CRE1.203 (Tiarna Gordon)
F:file ID: cre.1/116lord_g
C:John Marshall
S:Tommy Potts
M:C
R:reel
L:1/8
Q:180
K:D
dB|ADD2 A,DFD|CEAG FAdc|BEE/D/E dEE/D/E|cEE/D/E BAFA|
"5"dcdf ecdc|BA^GB ABdf|afec dBAF|EFGA BcdB|
"9"AD (3FED A,DFB|AD (3FED FAdc|BEE2 Bd (3cBA|BA^GA B=GAF|
"13"d3f ecdB|(3ABA GB ABdf|afec dBAF|EFGA Bcde||
"17"f2de fAde|f2df afgf|efga bgec|dcBA FABc|
"21"dcdf ecdc|BA^GB ABdf|afec dBAF|EFGA Bcdg|
"25"fAdg fAdg|fAdf afgf|efga bgec|dfed BAFA|
"29"dcdf ecdc|BA^GB ABdf|afec dBAF|EFGA BcdB|| 
"33"Addc defd|Addc defd|eggf gagf|eggf gage|
"37"fgfe dcdB|(3ABA GB ABdf|afec dBAF|EFGA Bcde||
"41"faa/g/a fdad|faa/g/a fdad|gbb/a/b gebe|gbb/a/b gebe|
"45"fgfe d3c|BA^GB ABdf|afec dBAF|EFGA Bcde|| 
"49"faaf afde|faaf a2gf|gbef gbef|gbef gbef|
"53"gabg fgaf|(3gfe dB ABdf|afec dBAF|EFGA B4|]

%%%

